src/status/16/battery-good-charging.svg

<svg width="20" height="16" enable-background="new" version="1.1" xmlns="http://www.w3.org/2000/svg">
 <g fill="#363636">
  <path d="m8.834 4-3.334 5h3l-0.75 3h0.41602l3.334-5h-3l0.75-3z" enable-background="new"/>
  <g fill-rule="evenodd">
   <path d="m2 3c-1.108 0-2 0.892-2 2v6c0 1.108 0.892 2 2 2h13c1.108 0 2-0.892 2-2v-6c0-1.108-0.892-2-2-2zm0 1h13c0.554 0 1 0.446 1 1v6c0 0.554-0.446 1-1 1h-13c-0.554 0-1-0.446-1-1v-6c0-0.554 0.446-1 1-1z" enable-background="new" style="paint-order:stroke fill markers"/>
   <path d="m2.5508 5c-0.30514 0-0.55078 0.24564-0.55078 0.55078v4.8984c0 0.30514 0.24564 0.55078 0.55078 0.55078h4.418l0.25-1h-1.7188c-0.79859-1.712e-4 -1.2749-0.89013-0.83203-1.5547l2.2969-3.4453h-4.4141zm7.4805 0-0.25 1h1.7188c0.1877 4.03e-5 0.35566 0.052848 0.5 0.13672v-0.58594c0-0.30514-0.24564-0.55078-0.55078-0.55078h-1.418zm1.9688 3.0527-1.9648 2.9473h1.4141c0.30514 0 0.55078-0.24564 0.55078-0.55078v-2.3965z" enable-background="new" style="paint-order:stroke fill markers"/>
   <path d="m18 6v4a2 2 0 0 0 2-2 2 2 0 0 0-2-2z" enable-background="new" style="paint-order:stroke fill markers"/>
  </g>
 </g>
</svg>

<svg xmlns="http://www.w3.org/2000/svg" width="20" height="16">
    <g fill="#050505" opacity=".7">
        <path d="M8.834 4 5.5 9h3l-.75 3h.416L11.5 7h-3l.75-3z"/>
        <g fill-rule="evenodd">
            <path d="M2 3C.892 3 0 3.892 0 5v6c0 1.108.892 2 2 2h13c1.108 0 2-.892 2-2V5c0-1.108-.892-2-2-2zm0 1h13c.554 0 1 .446 1 1v6c0 .554-.446 1-1 1H2c-.554 0-1-.446-1-1V5c0-.554.446-1 1-1z" style="paint-order:stroke fill markers"/>
            <path d="M2.55 5a.55.55 0 0 0-.55.55v4.9c0 .304.246.55.55.55H6.97l.25-1H5.5a1 1 0 0 1-.832-1.555L6.965 5H2.55zm7.481 0-.25 1h1.72c.187 0 .355.053.5.137V5.55A.55.55 0 0 0 11.448 5h-1.418zm1.97 3.053L10.034 11h1.414a.55.55 0 0 0 .551-.55V8.052zM18 6v4a2 2 0 0 0 2-2 2 2 0 0 0-2-2z" style="paint-order:stroke fill markers"/>
        </g>
    </g>
</svg>
